static/fa/svgs/solid/plug-circle-check.svg

<svg xmlns="http://www.w3.org/2000/svg" viewBox="0 0 576 512"><!--! Font Awesome Free 6.1.1 by @fontawesome - https://fontawesome.com License - https://fontawesome.com/license/free (Icons: CC BY 4.0, Fonts: SIL OFL 1.1, Code: MIT License) Copyright 2022 Fonticons, Inc.--><path d="M96 0c17.7 0 32 14.33 32 32v96H64V32C64 14.33 78.33 0 96 0zm192 0c17.7 0 32 14.33 32 32v96h-64V32c0-17.67 14.3-32 32-32zm64 160c17.7 0 32 14.3 32 32 0 2.3-.3 4.6-.7 6.8C309.8 219.1 256 287.7 256 368c0 11.4 1.1 22.5 3.1 33.3-11 5.1-22.8 9-35.1 11.5V512h-64v-99.2C86.97 397.1 32 333.4 32 256v-32c-17.67 0-32-14.3-32-32s14.33-32 32-32h320zm224 208c0 79.5-64.5 144-144 144s-144-64.5-144-144 64.5-144 144-144 144 64.5 144 144zm-99.3-43.3L416 385.4l-28.7-28.7c-6.2-6.3-16.4-6.3-22.6 0-6.3 6.2-6.3 16.4 0 22.6l40 40c6.2 6.3 16.4 6.3 22.6 0l72-72c6.3-6.2 6.3-16.4 0-22.6-6.2-6.3-16.4-6.3-22.6 0z"/></svg>

<svg xmlns="http://www.w3.org/2000/svg" viewBox="0 0 576 512"><!--! Font Awesome Free 6.1.1 by @fontawesome - https://fontawesome.com License - https://fontawesome.com/license/free (Icons: CC BY 4.0, Fonts: SIL OFL 1.1, Code: MIT License) Copyright 2022 Fonticons, Inc. --><path d="M96 0C113.7 0 128 14.33 128 32V128H64V32C64 14.33 78.33 0 96 0zM288 0C305.7 0 320 14.33 320 32V128H256V32C256 14.33 270.3 0 288 0zM352 160C369.7 160 384 174.3 384 192C384 194.3 383.7 196.6 383.3 198.8C309.8 219.1 256 287.7 256 368C256 379.4 257.1 390.5 259.1 401.3C248.1 406.4 236.3 410.3 224 412.8V512H160V412.8C86.97 397.1 32 333.4 32 256V224C14.33 224 0 209.7 0 192C0 174.3 14.33 160 32 160H352zM576 368C576 447.5 511.5 512 432 512C352.5 512 288 447.5 288 368C288 288.5 352.5 224 432 224C511.5 224 576 288.5 576 368zM476.7 324.7L416 385.4L387.3 356.7C381.1 350.4 370.9 350.4 364.7 356.7C358.4 362.9 358.4 373.1 364.7 379.3L404.7 419.3C410.9 425.6 421.1 425.6 427.3 419.3L499.3 347.3C505.6 341.1 505.6 330.9 499.3 324.7C493.1 318.4 482.9 318.4 476.7 324.7H476.7z"/></svg>
